X:1
T:Title
%%score { ( 1 3 ) | ( 2 4 ) }
L:1/8
Q:1/4=100
M:3/4
K:G
V:1 treble nm="Grand Piano"
V:3 treble 
V:2 treble 
V:4 treble 
V:1
 B2 A2 G2 | G>F F4 | [Ac]2 [GB]2 [FA]2 | B4 z2 | d2 c2 B2 | [EA]>[EB] [Ec]4 | .B2 z2 z2 | %7
w: J.~R.~Sweney * *|||||||
 [B,DG]4 z2 | A2 D[FA]/[FA]/ [GB]>[Ac] | [GB]4 z2 | [Gc]2 [Gd]2 [Ge]2 | [Fd]4 z2 | d2 c2 B2 | %13
w: ||||||
 [EA]>[EB] [Ec]4 | .B2 z2 z2 | [B,DG]4 z2 |] %16
w: |||
V:2
 [G,DG]2 [G,CD]2 [G,B,D]2 | [A,CD]>[A,CD][K:bass] [A,CD]4 | [D,D]2 [D,D]2 [D,D]2 | [G,DG]4 z2 | %4
 [G,B,G]2 [G,EG]2 [G,DG]2 | [C,C]>[B,,^G,] [A,,A,]4 | .G,2 z2 z2 | G,,4 z2 | %8
 F2 D,[D,D]/[D,D]/ [D,D]>[D,D] | [G,D]4 z2 | [E,C]2 [D,B,]2 [C,A,]2 | [D,A,]4 z2 | %12
 [G,B,G]2 [G,EG]2 [G,DG]2 | [C,C]>[B,,^G,] [A,,A,]4 | .G,2 z2 z2 | G,,4 z2 |] %16
V:3
 x6 | x6 | x6 | x6 | x6 | x6 | G-<[Gd] [CFA]2 [DB]2 | x6 | x6 | x6 | x6 | x6 | x6 | x6 | %14
 G-<[G-d] [CFGA]2 [DB]2 | x6 |] %16
V:4
 x6 | x2[K:bass] x4 | x6 | x6 | x6 | x6 | D,-<[D,B,] D,2 D,2 | x6 | x6 | x6 | x6 | x6 | x6 | x6 | %14
 D,-<[D,B,] D,2 D,2 | x6 |] %16

